components/2.0/icon/icons/icon-view-list-22px.svg

<svg width="22" height="22" xmlns="http://www.w3.org/2000/svg"><path d="M2 20h1c.6 0 1-.4 1-1v-1c0-.6-.4-1-1-1H2c-.6 0-1 .4-1 1v1c0 .6.4 1 1 1zm0-7h1c.6 0 1-.4 1-1v-1c0-.6-.4-1-1-1H2c-.6 0-1 .4-1 1v1c0 .6.4 1 1 1zm0-7h1c.6 0 1-.4 1-1V4c0-.6-.4-1-1-1H2c-.6 0-1 .4-1 1v1c0 .6.4 1 1 1zm18 14H7c-.6 0-1-.4-1-1v-1c0-.6.4-1 1-1h13c.6 0 1 .4 1 1v1c0 .6-.4 1-1 1zm0-7H7c-.6 0-1-.4-1-1v-1c0-.6.4-1 1-1h13c.6 0 1 .4 1 1v1c0 .6-.4 1-1 1zm0-7H7c-.6 0-1-.4-1-1V4c0-.6.4-1 1-1h13c.6 0 1 .4 1 1v1c0 .6-.4 1-1 1z" fill="#3D4752" fill-rule="evenodd"/></svg>

<?xml version="1.0" encoding="UTF-8" standalone="no"?>
<svg width="22px" height="22px" viewBox="0 0 22 22" version="1.1" xmlns="http://www.w3.org/2000/svg" xmlns:xlink="http://www.w3.org/1999/xlink" xmlns:sketch="http://www.bohemiancoding.com/sketch/ns">
    <!-- Generator: Sketch 3.4.4 (17249) - http://www.bohemiancoding.com/sketch -->
    <title>icon-view-list-22px</title>
    <desc>Created with Sketch.</desc>
    <defs></defs>
    <g id="22px" stroke="none" stroke-width="1" fill="none" fill-rule="evenodd" sketch:type="MSPage">
        <g id="icon-view-list-22px" sketch:type="MSArtboardGroup" fill="#3D4752">
            <path d="M2,20 L3,20 C3.6,20 4,19.6 4,19 L4,18 C4,17.4 3.6,17 3,17 L2,17 C1.4,17 1,17.4 1,18 L1,19 C1,19.6 1.4,20 2,20 L2,20 Z M2,13 L3,13 C3.6,13 4,12.6 4,12 L4,11 C4,10.4 3.6,10 3,10 L2,10 C1.4,10 1,10.4 1,11 L1,12 C1,12.6 1.4,13 2,13 L2,13 Z M2,6 L3,6 C3.6,6 4,5.6 4,5 L4,4 C4,3.4 3.6,3 3,3 L2,3 C1.4,3 1,3.4 1,4 L1,5 C1,5.6 1.4,6 2,6 L2,6 Z M20,20 L7,20 C6.4,20 6,19.6 6,19 L6,18 C6,17.4 6.4,17 7,17 L20,17 C20.6,17 21,17.4 21,18 L21,19 C21,19.6 20.6,20 20,20 L20,20 Z M20,13 L7,13 C6.4,13 6,12.6 6,12 L6,11 C6,10.4 6.4,10 7,10 L20,10 C20.6,10 21,10.4 21,11 L21,12 C21,12.6 20.6,13 20,13 L20,13 Z M20,6 L7,6 C6.4,6 6,5.6 6,5 L6,4 C6,3.4 6.4,3 7,3 L20,3 C20.6,3 21,3.4 21,4 L21,5 C21,5.6 20.6,6 20,6 L20,6 Z" id="SVGID_5_" sketch:type="MSShapeGroup"></path>
        </g>
    </g>
</svg>
